X: 24929
T: Maid Behind The Bar, The
R: reel
M: 4/4
K: Dmajor
|:FA/A/AB AFED|FA/A/AF ABde|fBBA Bcde|f2gf edBB|
AA/A/AB AFED|FA/A/AF ABde|fBBA BcdB|1 AFEF D2DE:|2 AFEF D2 de||
|:faag fddd|fdad fddd|ef/f/ga bgee|gebe geeg|
fg/g/aa baaf|defd edde|fBBA BcdB|1 AFEF D2 de:|2 AFEF D2DE||

